icon-themes/breeze_svg/cmd/sc_insertcaptiondialog.svg

<svg viewBox="0 0 16 16" xmlns="http://www.w3.org/2000/svg"><path d="m6 2v1 3h-3l-1 8h1l1-7h2v4h1.25 1.25 2.5 1.25 1.75v-9zm1 1h6v7h-6z" fill="#4d4d4d"/><path d="m7 12c-.55228 0-1 .44772-1 1s.44772 1 1 1 1-.44772 1-1-.44772-1-1-1zm3 0c-.55228 0-1 .44772-1 1s.44772 1 1 1 1-.44772 1-1-.44772-1-1-1zm3 0c-.55228 0-1 .44772-1 1s.44772 1 1 1 1-.44772 1-1-.44772-1-1-1z" fill="#f47750"/></svg>

<svg xmlns="http://www.w3.org/2000/svg" viewBox="0 0 16 16">
 <path 
     style="fill:#4d4d4d" 
     d="M 6 2 L 6 3 L 6 6 L 3 6 L 2 14 L 3 14 L 4 7 L 6 7 L 6 11 L 7.25 11 L 8.5 11 L 11 11 L 12.25 11 L 14 11 L 14 2 L 6 2 z M 7 3 L 13 3 L 13 10 L 7 10 L 7 3 z "
     />
 <path 
     style="fill:#f47750" 
     d="M 7 12 C 6.44772 12 6 12.44772 6 13 C 6 13.55228 6.44772 14 7 14 C 7.55228 14 8 13.55228 8 13 C 8 12.44772 7.55228 12 7 12 z M 10 12 C 9.44772 12 9 12.44772 9 13 C 9 13.55228 9.44772 14 10 14 C 10.55228 14 11 13.55228 11 13 C 11 12.44772 10.55228 12 10 12 z M 13 12 C 12.44772 12 12 12.44772 12 13 C 12 13.55228 12.44772 14 13 14 C 13.55228 14 14 13.55228 14 13 C 14 12.44772 13.55228 12 13 12 z "
     />
 </svg>
